svg/color/cirus.svg

<?xml version="1.0" encoding="UTF-8" ?>
<!DOCTYPE svg PUBLIC "-//W3C//DTD SVG 1.1//EN" "http://www.w3.org/Graphics/SVG/1.1/DTD/svg11.dtd">
<svg width="250pt" height="250pt" viewBox="0 0 250 250" version="1.1" xmlns="http://www.w3.org/2000/svg">
<g id="#fdfefdff">
<path fill="#fdfefd" opacity="1.00" d=" M 0.00 0.00 L 114.58 0.00 C 109.71 0.71 104.85 1.47 99.99 2.21 C 87.24 4.71 74.88 9.21 63.51 15.52 C 59.50 17.69 56.97 21.67 54.55 25.39 C 49.65 33.66 45.94 43.94 49.61 53.40 C 53.03 61.38 59.79 67.50 67.17 71.82 C 72.75 75.92 79.34 78.21 85.45 81.35 C 105.73 89.65 127.16 94.49 148.41 99.55 C 165.03 104.31 181.72 109.19 197.39 116.60 C 216.02 124.68 233.54 136.23 246.16 152.36 C 247.90 148.61 247.97 144.43 248.67 140.43 C 249.06 137.66 249.70 134.86 249.33 132.06 C 246.96 129.17 243.34 127.77 240.23 125.85 C 217.69 112.35 195.36 98.42 174.28 82.72 C 164.94 75.11 155.39 67.70 146.98 59.05 C 136.09 48.87 126.13 36.53 123.31 21.50 C 121.37 14.03 124.02 6.26 128.11 0.00 L 250.00 0.00 L 250.00 250.00 L 0.00 250.00 L 0.00 132.41 C 0.25 135.14 0.31 137.99 1.40 140.56 C 3.69 142.76 6.67 144.03 9.32 145.73 C 34.68 161.64 59.74 178.15 83.20 196.79 C 91.70 202.84 98.85 210.49 106.68 217.33 C 113.54 224.54 120.27 232.00 125.61 240.42 C 127.57 243.23 128.47 246.85 131.11 249.13 C 135.43 249.70 139.73 248.41 144.01 247.98 C 155.55 246.60 166.78 243.12 177.28 238.18 C 182.63 235.63 188.89 233.60 192.16 228.28 C 194.47 224.57 196.82 220.53 196.74 216.01 C 197.54 207.89 191.49 201.16 185.48 196.58 C 179.59 193.07 174.24 188.59 167.77 186.13 C 135.70 170.93 100.05 166.57 66.65 155.28 C 48.97 149.12 31.59 141.61 16.18 130.84 C 10.27 127.05 5.47 121.87 0.00 117.52 L 0.00 0.00 M 142.80 11.66 C 141.72 15.79 141.97 20.38 143.83 24.26 C 150.19 37.45 161.08 47.60 172.11 56.89 C 182.48 66.33 194.23 74.06 205.30 82.63 C 212.92 87.33 220.30 92.42 227.90 97.16 C 234.87 101.37 241.42 106.45 248.99 109.56 C 248.99 94.68 243.23 80.46 236.74 67.30 C 232.11 56.95 225.04 47.89 217.32 39.67 C 205.77 26.81 191.30 16.68 175.53 9.67 C 168.25 7.09 161.05 3.46 153.21 3.24 C 148.86 4.54 145.18 7.85 142.80 11.66 M 6.52 85.40 C 5.66 88.04 4.50 91.20 6.28 93.73 C 16.39 111.76 35.14 122.37 53.42 130.53 C 73.48 138.79 94.38 144.96 115.60 149.43 C 139.34 155.58 163.38 162.06 184.92 174.11 C 193.36 179.39 201.91 184.99 208.02 193.00 C 212.22 198.09 213.93 204.63 215.44 210.91 C 222.84 204.68 228.05 196.30 233.23 188.23 C 235.14 184.48 238.59 180.75 237.48 176.22 C 236.31 172.65 234.68 169.23 233.01 165.86 C 229.13 159.33 223.42 154.18 217.58 149.43 C 213.01 145.90 208.44 142.30 203.22 139.75 C 187.39 131.09 170.34 124.92 153.00 120.06 C 138.13 115.42 122.75 112.79 107.84 108.32 C 86.48 101.94 64.72 94.16 47.62 79.35 C 37.53 70.64 30.10 57.76 30.60 44.13 C 19.45 55.71 11.91 70.37 6.52 85.40 M 8.08 166.15 C 9.90 171.02 11.48 175.98 13.39 180.81 C 16.34 185.24 17.98 190.45 21.52 194.49 C 24.73 198.06 26.38 202.75 29.86 206.11 C 42.83 221.95 60.03 234.11 78.92 241.86 C 88.83 245.31 98.90 248.82 109.50 249.10 C 109.02 247.79 108.52 246.47 107.67 245.35 C 101.58 236.87 94.27 229.27 86.05 222.84 C 82.90 220.06 80.23 216.76 76.88 214.21 C 67.34 206.67 57.75 199.17 47.65 192.39 C 39.97 186.58 31.92 181.27 23.71 176.26 C 18.95 172.23 13.35 169.43 8.08 166.15 Z" />
</g>
<g id="#fd7171ff">
<path fill="#fd7171" opacity="1.00" d=" M 114.58 0.00 L 128.11 0.00 C 124.02 6.26 121.37 14.03 123.31 21.50 C 126.13 36.53 136.09 48.87 146.98 59.05 C 155.39 67.70 164.94 75.11 174.28 82.72 C 195.36 98.42 217.69 112.35 240.23 125.85 C 243.34 127.77 246.96 129.17 249.33 132.06 C 249.70 134.86 249.06 137.66 248.67 140.43 C 247.97 144.43 247.90 148.61 246.16 152.36 C 233.54 136.23 216.02 124.68 197.39 116.60 C 181.72 109.19 165.03 104.31 148.41 99.55 C 127.16 94.49 105.73 89.65 85.45 81.35 C 79.34 78.21 72.75 75.92 67.17 71.82 C 59.79 67.50 53.03 61.38 49.61 53.40 C 45.94 43.94 49.65 33.66 54.55 25.39 C 56.97 21.67 59.50 17.69 63.51 15.52 C 74.88 9.21 87.24 4.71 99.99 2.21 C 104.85 1.47 109.71 0.71 114.58 0.00 Z" />
<path fill="#fd7171" opacity="1.00" d=" M 142.80 11.66 C 145.18 7.85 148.86 4.54 153.21 3.24 C 161.05 3.46 168.25 7.09 175.53 9.67 C 191.30 16.68 205.77 26.81 217.32 39.67 C 225.04 47.89 232.11 56.95 236.74 67.30 C 243.23 80.46 248.99 94.68 248.99 109.56 C 241.42 106.45 234.87 101.37 227.90 97.16 C 220.30 92.42 212.92 87.33 205.30 82.63 C 194.23 74.06 182.48 66.33 172.11 56.89 C 161.08 47.60 150.19 37.45 143.83 24.26 C 141.97 20.38 141.72 15.79 142.80 11.66 Z" />
<path fill="#fd7171" opacity="1.00" d=" M 6.52 85.40 C 11.91 70.37 19.45 55.71 30.60 44.13 C 30.10 57.76 37.53 70.64 47.62 79.35 C 64.72 94.16 86.48 101.94 107.84 108.32 C 122.75 112.79 138.13 115.42 153.00 120.06 C 170.34 124.92 187.39 131.09 203.22 139.75 C 208.44 142.30 213.01 145.90 217.58 149.43 C 223.42 154.18 229.13 159.33 233.01 165.86 C 234.68 169.23 236.31 172.65 237.48 176.22 C 238.59 180.75 235.14 184.48 233.23 188.23 C 228.05 196.30 222.84 204.68 215.44 210.91 C 213.93 204.63 212.22 198.09 208.02 193.00 C 201.91 184.99 193.36 179.39 184.92 174.11 C 163.38 162.06 139.34 155.58 115.60 149.43 C 94.38 144.96 73.48 138.79 53.42 130.53 C 35.14 122.37 16.39 111.76 6.28 93.73 C 4.50 91.20 5.66 88.04 6.52 85.40 Z" />
<path fill="#fd7171" opacity="1.00" d=" M 0.00 117.52 C 5.47 121.87 10.27 127.05 16.18 130.84 C 31.59 141.61 48.97 149.12 66.65 155.28 C 100.05 166.57 135.70 170.93 167.77 186.13 C 174.24 188.59 179.59 193.07 185.48 196.58 C 191.49 201.16 197.54 207.89 196.74 216.01 C 196.82 220.53 194.47 224.57 192.16 228.28 C 188.89 233.60 182.63 235.63 177.28 238.18 C 166.78 243.12 155.55 246.60 144.01 247.98 C 139.73 248.41 135.43 249.70 131.11 249.13 C 128.47 246.85 127.57 243.23 125.61 240.42 C 120.27 232.00 113.54 224.54 106.68 217.33 C 98.85 210.49 91.70 202.84 83.20 196.79 C 59.74 178.15 34.68 161.64 9.32 145.73 C 6.67 144.03 3.69 142.76 1.40 140.56 C 0.31 137.99 0.25 135.14 0.00 132.41 L 0.00 117.52 Z" />
<path fill="#fd7171" opacity="1.00" d=" M 8.08 166.15 C 13.35 169.43 18.95 172.23 23.71 176.26 C 31.92 181.27 39.97 186.58 47.65 192.39 C 57.75 199.17 67.34 206.67 76.88 214.21 C 80.23 216.76 82.90 220.06 86.05 222.84 C 94.27 229.27 101.58 236.87 107.67 245.35 C 108.52 246.47 109.02 247.79 109.50 249.10 C 98.90 248.82 88.83 245.31 78.92 241.86 C 60.03 234.11 42.83 221.95 29.86 206.11 C 26.38 202.75 24.73 198.06 21.52 194.49 C 17.98 190.45 16.34 185.24 13.39 180.81 C 11.48 175.98 9.90 171.02 8.08 166.15 Z" />
</g>
</svg>

<?xml version="1.0" encoding="utf-8"?>
<!-- Generator: Adobe Illustrator 26.0.3, SVG Export Plug-In . SVG Version: 6.00 Build 0)  -->
<svg version="1.1" id="Layer_1" xmlns="http://www.w3.org/2000/svg" xmlns:xlink="http://www.w3.org/1999/xlink" x="0px" y="0px"
	 viewBox="0 0 250 250" style="enable-background:new 0 0 250 250;" xml:space="preserve">
<style type="text/css">
	.st0{fill:#FFFFFF;}
	.st1{fill:#FD7171;}
</style>
<circle class="st0" cx="125" cy="125.5" r="125"/>
<g id="_x23_fd7171ff">
	<path class="st1" d="M114.6,0h13.5c-4.1,6.3-6.7,14-4.8,21.5c2.8,15,12.8,27.4,23.7,37.5c8.4,8.6,18,16.1,27.3,23.7
		c21.1,15.7,43.4,29.6,65.9,43.1c3.1,1.9,6.7,3.3,9.1,6.2c0.4,2.8-0.3,5.6-0.7,8.4c-0.7,4-0.8,8.2-2.5,11.9
		c-12.6-16.1-30.1-27.7-48.8-35.8c-15.7-7.4-32.4-12.3-49-17c-21.2-5.1-42.7-9.9-63-18.2c-6.1-3.1-12.7-5.4-18.3-9.5
		C59.8,67.5,53,61.4,49.6,53.4c-3.7-9.5,0-19.7,4.9-28c2.4-3.7,5-7.7,9-9.9C74.9,9.2,87.2,4.7,100,2.2C104.8,1.5,109.7,0.7,114.6,0z
		"/>
	<path class="st1" d="M142.8,11.7c2.4-3.8,6.1-7.1,10.4-8.4c7.8,0.2,15,3.9,22.3,6.4c15.8,7,30.2,17.1,41.8,30
		c7.7,8.2,14.8,17.3,19.4,27.6c6.5,13.2,12.2,27.4,12.2,42.3c-7.6-3.1-14.1-8.2-21.1-12.4c-7.6-4.7-15-9.8-22.6-14.5
		c-11.1-8.6-22.8-16.3-33.2-25.7c-11-9.3-21.9-19.4-28.3-32.6C142,20.4,141.7,15.8,142.8,11.7z"/>
	<path class="st1" d="M6.5,85.4c5.4-15,12.9-29.7,24.1-41.3c-0.5,13.6,6.9,26.5,17,35.2c17.1,14.8,38.9,22.6,60.2,29
		c14.9,4.5,30.3,7.1,45.2,11.7c17.3,4.9,34.4,11,50.2,19.7c5.2,2.6,9.8,6.1,14.4,9.7c5.8,4.8,11.6,9.9,15.4,16.4
		c1.7,3.4,3.3,6.8,4.5,10.4c1.1,4.5-2.3,8.3-4.2,12c-5.2,8.1-10.4,16.4-17.8,22.7c-1.5-6.3-3.2-12.8-7.4-17.9
		c-6.1-8-14.7-13.6-23.1-18.9c-21.5-12.1-45.6-18.5-69.3-24.7c-21.2-4.5-42.1-10.6-62.2-18.9c-18.3-8.2-37-18.8-47.1-36.8
		C4.5,91.2,5.7,88,6.5,85.4z"/>
	<path class="st1" d="M0,117.5c5.5,4.4,10.3,9.5,16.2,13.3c15.4,10.8,32.8,18.3,50.5,24.4c33.4,11.3,69,15.6,101.1,30.9
		c6.5,2.5,11.8,6.9,17.7,10.4c6,4.6,12.1,11.3,11.3,19.4c0.1,4.5-2.3,8.6-4.6,12.3c-3.3,5.3-9.5,7.4-14.9,9.9
		c-10.5,4.9-21.7,8.4-33.3,9.8c-4.3,0.4-8.6,1.7-12.9,1.2c-2.6-2.3-3.5-5.9-5.5-8.7c-5.3-8.4-12.1-15.9-18.9-23.1
		c-7.8-6.8-15-14.5-23.5-20.5c-23.5-18.6-48.5-35.1-73.9-51.1c-2.6-1.7-5.6-3-7.9-5.2c-1.1-2.6-1.1-5.4-1.4-8.1V117.5z"/>
	<path class="st1" d="M8.1,166.1c5.3,3.3,10.9,6.1,15.6,10.1c8.2,5,16.3,10.3,23.9,16.1c10.1,6.8,19.7,14.3,29.2,21.8
		c3.4,2.5,6,5.8,9.2,8.6c8.2,6.4,15.5,14,21.6,22.5c0.8,1.1,1.3,2.4,1.8,3.8c-10.6-0.3-20.7-3.8-30.6-7.2
		c-18.9-7.8-36.1-19.9-49.1-35.8c-3.5-3.4-5.1-8.1-8.3-11.6c-3.5-4-5.2-9.2-8.1-13.7C11.5,176,9.9,171,8.1,166.1z"/>
</g>
</svg>
